X: 1
T:BWV Anh. 109
C:Johann Sebastian Bach?
O:Germany
Z:Transcribed by Frank Nordberg - http://www.musicaviva.com

M:C
L:1/16

K:Bb
V:1
z16|z16|z16|z16|z16|
B16|A8c8|=B8^c8|
d6e2 d6g2|^f6a2 g6^f2|g2=f2e2d2 e2d2c2_B2|A2G2^F2G2 G2^F2 z4|
z ABA GAGF =EGBA BG^FE|^FAcB cBAG ^F^GA=B cAGF|^G=Bd^c d=c_BA =G4-MG3^F/G/|
^F6B2 A6G2|c6BA B4A4|G6G2 _A2=A2_B2c2|_d6d2 c2f4=e2|
f4 z4 c4 z4|z8 z2 .=e2.e2.e2|z2 .f2.f2.f2 z2 .^f2.f2.f2|
z2 .g2.g2.g2 z2 ._g2.g2.g2|=g2f2 b4-b2_a2 e4-|e2=d2 =g4-g2^f2 c4-|
c2B2 e4-e2d4^c2|d4 z4 ^f4 z4|B16|
A8c8|=B8^c8|d6d2c8|
B8 z2 B2A2G2|G2^F2F4 z2 A2d4|G2=F2E2D2 z2 .^C2.C2.C2|
z2 .D2.D2.D2 z2 .^D2.D2.D2|z2 .=E2.E2.E2 z2 ._E2.E2.E2|E2D2 G4- G2^F2 B4-|
B2A2 z4 z8|B16|A8c8|
=B8^c8|d6e2 d6g2|^f6a2 g6^f2|
g2=f2e2d2 e2d2c2_B2|A2G2^F2G2 G2^F2 z4|z ABA GAGF =EGBA BG^FE|
^FAcB cBAG ^F^GA=B cAGF|^G=Bd^c d=c_BA =G4-MG3^F/G/|^F6B2 A6G2|
c6BA B4A4|G4G12|G4 z4 z8|]
V:2
z8 z2 .^C2.C2.C2|z2 .D2.D2.D2 z2 .^D2.D2.D2|z2 .=E2.E2.E2 z2.E2.E2.E2|E2D2 G4- G2^F2 B4-|B2A2 C4-C2B,2 G4-|
GF=EF G4 z2 .=E2.E2.E2|z2 .F2.F2.F2 z2 .^F2.F2.F2|z2 .G2.G2.G2 z2 ._G2.G2.G2|
=G2F2 B4-B2A2 d4-|d2c2 E4-E2D2B2A2|G8-G2F2E2D2|C4^C4 B,2D2 z4|
B,16|A,8C8|=B,8^C8|
D6D2 =C6D2|=E4^F4-F2G2- G=E^FC|B,6=B,2 C4_D2E2|F6F2 =E2F2B4|
=A4 z4 C4 z4|z C_DC B,CB,_A, =G,F,G,_A, B,G,F,G,|_A,B,CB, A,G,F,G, =A,G,A,B, CA,G,A,|
=B,CDC B,A,G,A, _B,A,B,D CB,A,G,|A,CB,C _D4- D2C2 _G4-|_G2F2 B4- B2A=G A2^F2|
G6A2 B2^F2 G4|^F4 z4 A4 z4|G2=F2_E2D2 z2 .^C2.C2.C2|
z2 .D2.D2.D2 z2 .^D2.D2.D2|z2 .=E2.E2.E2 z2 ._E2.E2.E2|E2D2 B6 A2 E4-|
E2D2 G4 z2 z G2^F2=E|_E2D2 D4 z2 D2 ^F4|z A,B,A, G,A,G,F, =E,G,B,A, B,G,^F,=E,|
^F,A,CB, CB,A,G, ^F,^G,A,=B, CA,=G,^F,|^G,=B,D^C D=CB,A, =G,4 MG,3^F,/G,/|^F,4 z4 z8|
z4 C4- C2B,2 G4-|GF=EF G4 z2 .E2.E2.E2|z2 .F2.F2.F2 z2 .^F2.F2.F2|
z2 .G2.G2.G2 z2 ._G2.G2.G2|=G2F2 B4- B2A2 d4|^f2c2 E4- E2D2B2A2|
G8- G2F2E2D2|C4 ^C4 B,2D2 z4|B,16|
A,8C8|=B,8 ^C8|D6 D2 =C6 D2|
=E4 ^F4- F2G2- G=E^FC|B,3C/D/ [C4E4-] [E2C2]C-[CE] [CD-][DB,-][B,C-][CA,]|[=B,4D4] z4 z8|]
V:3
B,,16|A,,8C,8|=B,,8^C,8|D,6E,2 D,6G,2|^F,6 A,2 G,4- G,=F,=E,D,|
=E,F,G,F, E,F,E,D, ^C,=E,G,F, G,E,D,C,|D,F,A,G, A,G,F,=E, ^D,^F,A,G, A,F,=E,D,|=E,G,=B,A, B,A,G,=F, _E,4- ME,3D,/E,/|
D,6C,2 B,,2F,2 B,4-|B,2A,2 C4- C2B,2C2D2|E2D2C2=B,2 C6D,2|E,8 D,4 D,,D,=E,^F,|
G,2=F,2_E,2D,2 z2 .^C,2.C,2.C,2|z2 .D,2.D,2.D,2 z2 .^D,2.D,2.D,2|z2 .=E,2.E,2.E,2 z2 ._E,2.E,2.E,2|
E,2D,2 G,4- G,2^F,2 B,4-|B,2A,G, A,2D,2 G,D,_E,B,, C,2D,2|G,,2D,2 G,4- G,2F,2- F,E,_D,C,|B,,2F,2 B,4- B,2_A,2 T_G,3F,/G,/|
F,=A,CB, CA,E,D, E,A,CB, A,_G,F,E,|_D,8-D,8|C,8E,8|
D,8=E,8|F,6G,2_A,6=A,2|B,6C2D6D,2|
E,2D,2C,2F,2 B,,2C,D, ME,3D,/E,/|D,^F,A,G, A,B,CD ED^CD =E^FGA|z A,B,A, G,A,G,=F, =E,G,B,A, B,G,^F,=E,|
^F,A,=CB, CB,A,G, ^F,^G,A,=B, CA,=G,^F,|^G,=B,D=C D=C_B,A, =G,4 MG,3^F,/G,/|^F,6G,2 A,,6^F,2|
G,4- G,B,E,G, ^C,8|D,4- D,A,^F,A, C,4-C,E,A,,C,|B,,16|
A,,8C,8|=B,,8^C,8|D,6E,2 D,6G,2|
^F,6A,2 E,4- G,=F,=E,D,|=E,F,G,F, E,F,E,D, ^C,E,G,F, G,E,D,^C,|D,F,A,G, A,G,F,=E, ^D,^F,A,G, A,F,=E,D,|
=E,G,=B,A, B,A,G,F, _E,4-ME,3D,/E,/|D,6C,2 B,,2F,2 B,4-|B,2A,2 C4-C2B,2C2D2|
E2D2C2=B,2 C6D,2|E,8 D,4 D,,D,=E,^F,|G,2=F,2_E,2D,2 z2 .^C,2.C,2.C,2|
z2 .D,2.D,2.D,2 z2 .^D,2.D,2.D,2|z2 .=E,2.E,2.E,2 z2 ._E,2.E,2.E,2|E,2D,2 G,4- G,2^F,2 B,4-|
B,2A,G, F,2D,2 G,D,_E,B,, C,2D,2|G,,4C,,4G,,8-|G,,4 z4 z8|]

